public/assets/icons/one-sample.svg

<svg viewBox="0 0 60 60" xmlns="http://www.w3.org/2000/svg" xmlns:xlink="http://www.w3.org/1999/xlink"><linearGradient id="a" gradientUnits="userSpaceOnUse" x1="30" x2="30" y1="54.19" y2="5.81"><stop offset="0" stop-color="#facfdc"/><stop offset="1" stop-color="#d2e2f7"/></linearGradient><g transform="matrix(1.240182 0 0 1.240182 -7.205449 -7.205457)"><path d="m26 32.79h1.4a.83.83 0 0 1 0 1.66h-1.4v3.29h1.4a.83.83 0 0 1 .83.83.84.84 0 0 1 -.83.84h-1.4v3.28h1.4a.83.83 0 0 1 .83.83.84.84 0 0 1 -.83.84h-1.33l.07.3a4 4 0 0 0 3.19 3h.19.2.2.08.24.2.2a4 4 0 0 0 3.36-3.93v-14.23h-8z" fill="#ffecf1"/><path d="m30 5.81a24.19 24.19 0 1 0 24.19 24.19 24.22 24.22 0 0 0 -24.19-24.19zm5.83 13.73h-.2v24.19a5.68 5.68 0 0 1 -4.48 5.53 10 10 0 0 1 -1.12.13 11.67 11.67 0 0 1 -1.18-.13 5.68 5.68 0 0 1 -4.48-5.53v-24.15h-.2a2.88 2.88 0 0 1 -2.17-2.82 2.83 2.83 0 0 1 2.73-2.83h.44 9.75.45a2.83 2.83 0 0 1 2.73 2.83 2.88 2.88 0 0 1 -2.27 2.78z" fill="url(#a)"/><path d="m35.32 13.93h-.45-9.74-.45a2.83 2.83 0 0 0 -2.68 2.83 2.88 2.88 0 0 0 2.22 2.78h.2v24.19a5.68 5.68 0 0 0 4.48 5.53 11.67 11.67 0 0 0 1.18.13 10 10 0 0 0 1.12-.13 5.68 5.68 0 0 0 4.48-5.53v-24.15h.2a2.88 2.88 0 0 0 2.22-2.78 2.83 2.83 0 0 0 -2.78-2.87zm-1.32 29.8a4 4 0 0 1 -3.36 3.93h-.2-.2-.24-.1-.2-.2-.05-.15a4 4 0 0 1 -3.19-3l-.07-.3h1.36a.84.84 0 0 0 .83-.84.83.83 0 0 0 -.83-.83h-1.4v-3.28h1.4a.84.84 0 0 0 .83-.84.83.83 0 0 0 -.83-.83h-1.4v-3.29h1.4a.83.83 0 0 0 0-1.66h-1.4v-3.29h8zm0-15.89h-8v-3.28h1.4a.84.84 0 0 0 .83-.84.83.83 0 0 0 -.83-.83h-1.4v-3.29h8zm1.23-9.75h-10.43a1.33 1.33 0 1 1 -.06-2.66h10.46a1.34 1.34 0 0 1 1.39 1.33 1.32 1.32 0 0 1 -1.33 1.33z" fill="#0d1c3a"/></g></svg>

<?xml version="1.0" encoding="utf-8"?>
<svg viewBox="0 0 60 60" xmlns="http://www.w3.org/2000/svg">
  <defs>
    <style>.cls-1{fill:#fff;}.cls-2{fill:#ffecf1;}.cls-3{fill:url(#New_Gradient_Swatch_2);}.cls-4{fill:#0d1c3a;}</style>
    <linearGradient id="New_Gradient_Swatch_2" x1="30" y1="54.19" x2="30" y2="5.81" gradientUnits="userSpaceOnUse">
      <stop offset="0" stop-color="#facfdc"/>
      <stop offset="1" stop-color="#d2e2f7"/>
    </linearGradient>
  </defs>
  <title>one-sample-icon</title>
  <g id="Layer_6" data-name="Layer 6" transform="matrix(1.240182, 0, 0, 1.240182, -7.205449, -7.205457)">
    <path class="cls-2" d="M26,32.79h1.4a.83.83,0,0,1,0,1.66H26v3.29h1.4a.83.83,0,0,1,.83.83.84.84,0,0,1-.83.84H26v3.28h1.4a.83.83,0,0,1,.83.83.84.84,0,0,1-.83.84H26.07l.07.3a4,4,0,0,0,3.19,3l.19,0h0l.2,0,.2,0H30l.24,0,.2,0h.2A4,4,0,0,0,34,43.73V29.5H26Z"/>
    <path class="cls-3" d="M30,5.81A24.19,24.19,0,1,0,54.19,30,24.22,24.22,0,0,0,30,5.81Zm5.83,13.73-.2,0V43.73a5.68,5.68,0,0,1-4.48,5.53,10,10,0,0,1-1.12.13,11.67,11.67,0,0,1-1.18-.13h0a5.68,5.68,0,0,1-4.48-5.53V19.58l-.2,0A2.88,2.88,0,0,1,22,16.76a2.83,2.83,0,0,1,2.73-2.83l.44,0h9.75l.45,0a2.83,2.83,0,0,1,2.73,2.83A2.88,2.88,0,0,1,35.83,19.54Z"/>
    <path class="cls-4" d="M35.32,13.93l-.45,0H25.13l-.45,0A2.83,2.83,0,0,0,22,16.76a2.88,2.88,0,0,0,2.22,2.78l.2,0V43.73a5.68,5.68,0,0,0,4.48,5.53h0a11.67,11.67,0,0,0,1.18.13,10,10,0,0,0,1.12-.13,5.68,5.68,0,0,0,4.48-5.53V19.58l.2,0a2.88,2.88,0,0,0,2.22-2.78A2.83,2.83,0,0,0,35.32,13.93ZM34,43.73a4,4,0,0,1-3.36,3.93h-.2l-.2,0-.24,0h-.1l-.2,0-.2,0h-.05l-.15,0a4,4,0,0,1-3.19-3l-.07-.3h1.36a.84.84,0,0,0,.83-.84.83.83,0,0,0-.83-.83H26V39.41h1.4a.84.84,0,0,0,.83-.84.83.83,0,0,0-.83-.83H26V34.45h1.4a.83.83,0,0,0,0-1.66H26V29.5h8Zm0-15.89H26V24.56h1.4a.84.84,0,0,0,.83-.84.83.83,0,0,0-.83-.83H26V19.6h8Zm1.23-9.75H24.8a1.33,1.33,0,1,1-.06-2.66H35.2a1.34,1.34,0,0,1,1.39,1.33A1.32,1.32,0,0,1,35.26,18.09Z"/>
  </g>
</svg>
